X: 71
T:Minor (la) Scales
L:1/4
M:10/4
K:FMin
"^F"       F2 GA Bc de f2|f2 ed cB AG F2||
M:10/4
K:CMin
"^C"       C2 DE FG AB c2|c2 BA GF ED C2||
M:10/4
K:GMin
"^G"       G2 AB cd ef g2|g2 fe dc BA G2||
M:10/4
K:DMin
"^D"       D2 EF GA Bc d2|d2 cB AG FE D2||
M:10/4
K:AMin
"^A"       A2 Bc de fg a2|a2 gf ed cB A2||
M:10/4
K:EMin
"^E"       E2 FG AB cd e2|e2 dc BA GF E2||
M:10/4
K:BMin
"^B"       B2 cd ef ga b2|b2 ag fe dc B2||
M:10/4
K:F#Min
"^F sharp" F2 GA Bc de f2|f2 ed cB AG F2||
M:10/4
K:C#Min
"^C sharp" C2 DE FG AB c2|c2 BA GF ED C2|]

The minor mode is the B-final mode on the pipes.

